public/assets/repost.svg

<svg xmlns="http://www.w3.org/2000/svg" width="24" height="24" viewBox="0 0 24 24" fill="none">
  <path fill-rule="evenodd" clip-rule="evenodd" d="M14.5556 4.89609C14.567 4.90625 14.5784 4.91643 14.5899 4.92664L18.1581 8.09832C18.8238 8.69009 19.3758 9.18066 19.7547 9.62599C20.153 10.094 20.4366 10.5979 20.4366 11.2215C20.4366 11.8451 20.153 12.349 19.7547 12.817C19.3758 13.2623 18.8238 13.7529 18.1581 14.3447L14.5899 17.5164C14.5784 17.5266 14.567 17.5368 14.5555 17.5469C14.2671 17.8034 13.998 18.0427 13.7654 18.1962C13.5371 18.347 13.1218 18.566 12.6567 18.3571C12.1915 18.1482 12.0793 17.6924 12.0403 17.4215C12.0006 17.1457 12.0006 16.7855 12.0007 16.3996C12.0007 16.3843 12.0007 16.369 12.0007 16.3536V14.9593C10.7103 15.0482 9.40279 15.3909 8.25905 15.9482C6.91409 16.6035 5.83997 17.5328 5.25704 18.6431C5.11445 18.9147 4.80495 19.054 4.50713 18.9806C4.2093 18.9071 4 18.64 4 18.3332C4 14.1364 5.22799 11.4038 6.98381 9.72381C8.51425 8.25947 10.3795 7.65859 12.0007 7.53284V6.08937C12.0007 6.07401 12.0007 6.05868 12.0007 6.0434C12.0006 5.65747 12.0006 5.29728 12.0403 5.02148C12.0793 4.75064 12.1915 4.29479 12.6567 4.08589C13.1218 3.877 13.5371 4.09601 13.7654 4.24678C13.998 4.40031 14.2671 4.63965 14.5556 4.89609ZM13.3369 5.60055C13.4374 5.68668 13.5574 5.79292 13.704 5.92327L17.2352 9.06213C17.9474 9.69515 18.4279 10.1243 18.7392 10.4902C19.0381 10.8415 19.1031 11.0466 19.1031 11.2215C19.1031 11.3964 19.0381 11.6015 18.7392 11.9528C18.4279 12.3187 17.9474 12.7478 17.2352 13.3809L13.704 16.5197C13.5574 16.6501 13.4374 16.7563 13.3369 16.8425C13.3345 16.7101 13.3341 16.5498 13.3341 16.3536V14.2694C13.3341 13.9012 13.0356 13.6027 12.6674 13.6027C10.9672 13.6027 9.2004 14.0062 7.67496 14.7495C6.85816 15.1475 6.09778 15.6495 5.4525 16.2502C5.78032 13.5415 6.74905 11.7939 7.90566 10.6873C9.34583 9.30931 11.1654 8.84035 12.6674 8.84035C13.0356 8.84035 13.3341 8.54184 13.3341 8.17362V6.08937C13.3341 5.89318 13.3345 5.7329 13.3369 5.60055Z" fill="#5C5C7B"/>
</svg>

<svg xmlns="http://www.w3.org/2000/svg" width="24" height="24" viewBox="0 0 24 24" fill="none"><path fill-rule="evenodd" clip-rule="evenodd" d="m14.556 4.896.034.03 3.568 3.172c.666.592 1.218 1.083 1.597 1.528.398.468.682.972.682 1.596 0 .623-.284 1.127-.682 1.595-.38.445-.931.936-1.597 1.528l-3.568 3.171-.034.03c-.289.257-.558.497-.79.65-.229.151-.644.37-1.11.161-.465-.209-.577-.665-.616-.935-.04-.276-.04-.637-.04-1.022v-1.441c-1.29.09-2.597.432-3.74.99-1.346.655-2.42 1.584-3.003 2.694A.667.667 0 0 1 4 18.333c0-4.197 1.228-6.93 2.984-8.61C8.514 8.26 10.38 7.66 12 7.534v-1.49c0-.386 0-.746.04-1.022.038-.27.15-.726.616-.935.465-.209.88.01 1.108.16.233.154.502.394.79.65Zm-1.22.705c.101.086.221.192.368.322l3.531 3.14c.712.632 1.193 1.061 1.504 1.427.3.351.364.557.364.732 0 .174-.065.38-.364.73-.311.367-.792.796-1.504 1.429l-3.531 3.139-.367.323a28.537 28.537 0 0 1-.003-.49V14.27a.667.667 0 0 0-.667-.666c-1.7 0-3.467.403-4.992 1.146a9.13 9.13 0 0 0-2.223 1.501c.328-2.709 1.297-4.456 2.454-5.563 1.44-1.378 3.26-1.847 4.761-1.847a.667.667 0 0 0 .667-.666V6.089c0-.196 0-.356.003-.488Z" fill="#5C5C7B"/></svg>
